X: 5368
T: Buckley's Fancy
R: reel
M: 4/4
K: Gmajor
(3DEF|:G2 BG DGBG|ABcd egdB|G2 BG DGBG|~A2 AG FDEF|
G2 BG DGBG|ABcd efga|bgaf gedB|1 GBAF G2 (3DEF:|2 GBAF G2 (3Bcd|
|:~g2 ga gede|eabg ageg|agab agef|eabg ~e2 de|
~g2 ga gede|eabg agef|~g2 ga gedB|1 GBAF G2 (3Bcd:|2 GBAF G2 (3DEF||

